X:1
T:Bird, 87.87
T:Bird, 87.87
T:G. W. Bird
T:Public Domain Courtesy of the Cyber Hymnal™
C:G. W. Bird
Z:Public Domain
Z:Courtesy of the Cyber Hymnal™
%%score ( 1 2 ) ( 3 4 )
L:1/8
Q:1/4=135
M:3/4
K:Eb
V:1 treble 
V:2 treble 
V:3 bass 
V:4 bass 
V:1
 [B,G]4 [EF]2 | [EA]4 [EG]2 | [^Fc]4 [GB]2 | [AB]2 [DA]2 z2 | [DF]4 [EG]2 | [DA]4 [DA]2 | %6
 [DG]4 [DF]2 | [EG]6 | [GB]4 [GB]2 | [Gc]4 [Fd]2 | [Ee]4 [Ed]2 | [Ed]2 [Ec]2 z2 | [DF]4 [EG]2 | %13
 [^CB]4 [DA]2 | (A2 G2) [DF]2 | E6 |] %16
V:2
 x6 | x6 | x6 | x6 | x6 | x6 | x6 | x6 | x6 | x6 | x6 | x6 | x6 | x6 | D4 x2 | E6 |] %16
V:3
 [E,G,]4 [E,A,]2 | [E,C]4 [E,B,]2 | [E,=A,]4 [E,B,]2 | [F,B,]2 [F,B,]2 z2 | [B,,A,]4 [B,,G,]2 | %5
 [B,,F,]4 [B,,F,]2 | [B,,B,]4 [B,,A,]2 | [E,G,]6 | [E,E]4 [E,B,]2 | [E,E]4 [D,=B,]2 | %10
 [C,C]4 [G,,B,]2 | [A,,B,]2 [A,,A,]2 z2 | [B,,A,]4 [B,,G,]2 | [B,,=E,]4 [B,,F,]2 | %14
 (C2 B,2) [B,,A,]2 | [E,G,]6 |] %16
V:4
 x6 | x6 | x6 | x6 | x6 | x6 | x6 | x6 | x6 | x6 | x6 | x6 | x6 | x6 | B,,4 x2 | x6 |] %16

